modules/coreui-icons-free/icons/bed.svg

<!-- Generated by IcoMoon.io -->
<svg version="1.1" xmlns="http://www.w3.org/2000/svg" width="24" height="24" viewBox="0 0 24 24">
<title>bed</title>
<path d="M19.5 10.5h-9.75v5.654h-1.038v-1.922c-0.003-2.267-1.84-4.104-4.107-4.107h-2.355v-3h-1.5v16.125h1.5v-2.238l19.5 0.156v2.082h1.5v-9c-0.002-2.070-1.68-3.748-3.75-3.75h-0zM2.25 11.625h2.354c1.439 0.002 2.605 1.168 2.607 2.607v1.922h-4.962zM21.75 19.668l-19.5-0.156v-1.858h19.5zM21.75 16.154h-10.5v-4.154h8.25c1.242 0.001 2.249 1.008 2.25 2.25v0z"></path>
</svg>

<svg xmlns="http://www.w3.org/2000/svg" width="24" height="24" viewBox="0 0 24 24"><path d="M19.5 10.5H9.75v5.654H8.712v-1.922a4.112 4.112 0 00-4.107-4.107H2.25v-3H.75V23.25h1.5v-2.238l19.5.156v2.082h1.5v-9a3.754 3.754 0 00-3.75-3.75zM2.25 11.625h2.354a2.61 2.61 0 012.607 2.607v1.922H2.249zm19.5 8.043l-19.5-.156v-1.858h19.5zm0-3.514h-10.5V12h8.25a2.252 2.252 0 012.25 2.25z"/></svg>
